!!!COM: Palestrina, Giovanni Perluigi da
!!!OPR: Missa Jesu Nostra Redemptio
!!!OTL: Agnus I
**kern	**kern	**kern	**kern
*Ibass	*Itenor	*Icalto	*Icant
!Bassus	!Tenor	!Altus	!Cantus
*clefF4	*clefGv2	*clefG2	*clefG2
*k[]	*k[]	*k[]	*k[]
*E:phr	*E:phr	*E:phr	*E:phr
*M4/2	*M4/2	*M4/2	*M4/2
=1	=1	=1	=1
1r	1.c	1r	0r
[1F	.	[1c	.
.	2B	.	.
=2	=2	=2	=2
2F]	2A	1c]	0f
2E	2G	.	.
1D	1F	1B	.
=3	=3	=3	=3
2C	1G	1c	1e
2E	.	.	.
1D	1A	1d	1f
=4	=4	=4	=4
1C	1c	1.e	1g
1F	1r	.	[1a
.	.	2d	.
=5	=5	=5	=5
1E	1r	2c	2a]
.	.	2B	2g
2.D	[1F	1d	2f
.	.	.	2d
4E	.	.	.
=6	=6	=6	=6
4F	1F]	1c	4a
4G	.	.	4b
1A	.	.	4cc
.	.	.	4a
.	1E	2r	1b
2G#	.	2e	.
=7	=7	=7	=7
2A	1F	2c	1a
2D	.	2.f	.
1E	1G	.	1r
.	.	4e	.
.	.	[2e	.
=8	=8	=8	=8
1F	1.A	2e]	2r
.	.	2d	2a
1E	.	1e	2cc
.	2G	.	2b
=9	=9	=9	=9
0r	2F	2r	2.a
.	2D	2d	.
.	.	.	4g
.	1F	2c	4a
.	.	.	4b
.	.	4A	[2cc
.	.	4B	.
=10	=10	=10	=10
0r	2.E	4c	4cc]
.	.	4d	4b
.	.	1e	4g
.	4F	.	4a
.	1G	.	4b
.	.	.	4cc
.	.	4d	[2b
.	.	4c	.
=11	=11	=11	=11
1r	1F	4d	4b]
.	.	4c	4a
.	.	4c	1a
.	.	8B	.
.	.	8A	.
2r	1E	1B	.
2E	.	.	2g#
=12	=12	=12	=12
1F	2r	1A	1a
.	2A	.	.
2E	1c	1r	1r
2C	.	.	.
=13	=13	=13	=13
2D	2B	0r	0r
2E	2G	.	.
2F	2A	.	.
4E	2B	.	.
4D	.	.	.
=14	=14	=14	=14
4C	2c	1r	0r
4D	.	.	.
4E	4B	.	.
4F	4A	.	.
2G	2B	1e	.
2A	2c#	.	.
=15	=15	=15	=15
4D	1d	1f	1a
4E	.	.	.
4F	.	.	.
4G	.	.	.
1A	2r	2e	1cc
.	2A	2c	.
=16	=16	=16	=16
0r	2B	2d	2b
.	2c	2e	2g
.	2F	2f	2a
.	2G	4e	2b
.	.	4d	.
=17	=17	=17	=17
1r	2A	2c	2cc
.	4G	2d	4b
.	4F	.	4a
2r	1E	2.e	4g
.	.	.	4a
2E	.	.	4b
.	.	4d	4g
=18	=18	=18	=18
1F	0r	4c	4a
.	.	4B	4b
.	.	2A	2.cc
2E	.	1c	.
.	.	.	4b
2C	.	.	[2a
=19	=19	=19	=19
2D	1r	1B	2a]
2E	.	.	2g#
1F	2r	4A	1a
.	.	4B	.
.	2A	4c	.
.	.	4d	.
=20	=20	=20	=20
4C	1c	1e	0g
4D	.	.	.
4E	.	.	.
4F	.	.	.
2G	2B	2r	.
2E	2G	2e	.
=21	=21	=21	=21
1D	2A	1f	0r
.	2B	.	.
2C	4c	2e	.
.	4B	.	.
2F	4A	2c	.
.	4G	.	.
=22	=22	=22	=22
2F	4A	2d	1r
.	4F	.	.
2E	2G	2e	.
1D	1A	1f	2r
.	.	.	2a
=23	=23	=23	=23
4AA	2r	[0e	1cc
4BB	.	.	.
4C	2A	.	.
4D	.	.	.
1E	2G	.	2b
.	[2c	.	2g
=24	=24	=24	=24
0r	4c]	1e]	2a
.	8B	.	.
.	8A	.	.
.	2G	.	2b
.	4A	1r	4cc
.	4G	.	4b
.	4F	.	4a
.	4G	.	4g
=25	=25	=25	=25
1r	4A	0r	2f
.	4B	.	.
.	1c	.	2e
1G	.	.	1d
.	2B	.	.
=26	=26	=26	=26
2A	1c	2r	1c
1c	.	2c	.
.	1r	2e	1g
2B	.	[2g	.
=27	=27	=27	=27
1A	1r	2g]	2a
.	.	2f	1cc
1G	2r	2e	.
.	2G	2d	2b
=28	=28	=28	=28
1F	2A	1f	1a
.	1c	.	.
1G	.	2e	1g
.	2B	[2d	.
=29	=29	=29	=29
2F	2A	4d]	2r
.	.	4c	.
2E	2G	1c	2c
1D	1F	.	2d
.	.	2B	[2f
=30	=30	=30	=30
0C	2r	1c	2f]
.	2G	.	2e
.	2A	1r	4c
.	.	.	4d
.	[2c	.	4e
.	.	.	4f
=31	=31	=31	=31
0r	2c]	2r	4g
.	.	.	4a
.	2B	2d	4b
.	.	.	4g
.	2A	2e	2cc
.	2G	[2g	2b
=32	=32	=32	=32
1D	1d	2g]	1a
.	.	2f	.
2E	1G	2e	1g
[2G	.	4d	.
.	.	4c	.
=33	=33	=33	=33
2G]	1r	2B	1d
2F	.	2A	.
1E	1G	2B	2e
.	.	2c	[2g
=34	=34	=34	=34
1D	1A	1d	2g]
.	.	.	2f
1C	[1c	1G	1e
=35	=35	=35	=35
1GG	2c]	2r	1d
.	2B	1g	.
1AA	1A	.	1c
.	.	[2f	.
=36	=36	=36	=36
1C	1.G	2f]	1c
.	.	1e	.
1BB	.	.	1d
.	2F	[2d	.
=37	=37	=37	=37
1C	1E	4d]	1e
.	.	4c	.
.	.	1c	.
1GG	1D	.	1g
.	.	2B	.
=38	=38	=38	=38
[0C	[0C	[0c	[0e
=39	=39	=39	=39
0C]	0C]	0c]	0e]
==	==	==	==
*-	*-	*-	*-
!!!CDT: 1525/^1526/-1594/2/2
!!!OCY: Italia
!!!AGN: Mass (Paraphrase)
!!!AST: renaissance, vocal
!!!ASW: Hymn
!!!PWK: Masses, Book 4
!!!RNB: Cadence finals: C,A
!!!YOR: Le Opere Complete, v. 10, p. 38
!!!YOO: Rome, Italy: Fratelli Scalera
!!!END: 1992//
!!!EED: John Miller
!!!YEC: Copyright 2000, John Miller
!!!YEN: United States of America
!!!YEM: Rights to all derivative electronic formats reserved.
!!!YEM: Refer to licensing agreement for further details.
!!!YEM: This file must be accompanied by the licensing agreement.
!!!YEM: A copy of the licensing agreement may be found at http://www.music-cog.ohio-state.edu/HumdrumDatabases/Palestrina/license.txt
!!!EMD: converted to Humdrum by Bret Aarden
